svgs/regular/monitor-waveform.svg

<svg xmlns="http://www.w3.org/2000/svg" viewBox="0 0 576 512"><!--! Font Awesome Pro 6.6.0 by @fontawesome - https://fontawesome.com License - https://fontawesome.com/license (Commercial License) Copyright 2024 Fonticons, Inc. --><path d="M64 80c-8.8 0-16 7.2-16 16l0 144 128 0c8.4 0 16.2 4.4 20.6 11.7l25.5 42.5 60.4-120.9c3.9-7.8 11.8-12.9 20.5-13.2s17 4.1 21.5 11.6l41 68.3 58.4 0c13.3 0 24 10.7 24 24s-10.7 24-24 24l-72 0c-8.4 0-16.2-4.4-20.6-11.7l-25.5-42.5L245.5 354.7c-3.9 7.8-11.8 12.9-20.5 13.2s-17-4.1-21.5-11.6l-41-68.3L48 288l0 128c0 8.8 7.2 16 16 16l448 0c8.8 0 16-7.2 16-16l0-320c0-8.8-7.2-16-16-16L64 80zM0 96C0 60.7 28.7 32 64 32l448 0c35.3 0 64 28.7 64 64l0 320c0 35.3-28.7 64-64 64L64 480c-35.3 0-64-28.7-64-64L0 96z"/></svg>

<svg xmlns="http://www.w3.org/2000/svg" viewBox="0 0 576 512"><!--! Font Awesome Pro 6.4.0 by @fontawesome - https://fontawesome.com License - https://fontawesome.com/license (Commercial License) Copyright 2023 Fonticons, Inc. --><path d="M64 80c-8.8 0-16 7.2-16 16V240H176c8.4 0 16.2 4.4 20.6 11.7l25.5 42.5 60.4-120.9c3.9-7.8 11.8-12.9 20.5-13.2s17 4.1 21.5 11.6l41 68.3H424c13.3 0 24 10.7 24 24s-10.7 24-24 24H352c-8.4 0-16.2-4.4-20.6-11.7l-25.5-42.5L245.5 354.7c-3.9 7.8-11.8 12.9-20.5 13.2s-17-4.1-21.5-11.6l-41-68.3H48V416c0 8.8 7.2 16 16 16H512c8.8 0 16-7.2 16-16V96c0-8.8-7.2-16-16-16H64zM0 96C0 60.7 28.7 32 64 32H512c35.3 0 64 28.7 64 64V416c0 35.3-28.7 64-64 64H64c-35.3 0-64-28.7-64-64V96z"/></svg>
